**kern	**kern	**kern	**kern	**kern	**kern	**kern	**kern	**kern	**kern	**kern	**kern	**kern	**kern	**kern	**kern	**kern
*ITrd7c12	*	*	*	*	*	*ITrd-2c-3	*ITrd-2c-3	*ITrd5c9	*ITrd5c9	*	*	*ITrd1c2	*ITrd1c2	*	*	*
*	*Icello	*Iviola	*Ivioln	*Ivioln	*Itimpa	*	*	*	*	*Ifagot	*Ifagot	*	*	*Ioboe	*Ioboe	*Iflt
*Icbass	*I"Violoncello	*I"Viola	*I#2	*I#1	*I"Timpani	*Itromp	*Itromp	*Icor	*Icor	*I#2	*I#1	*Iclars	*Iclars	*I#2	*I#1	*I"Flauto
*I"Basso	*	*	*I"Violino II	*I"Violino I	*	*I#2	*I#1	*I#2	*I#1	*I"Fagotto 2	*I"Fagotto 1	*I#2	*I#1	*I"Oboe 2	*I"Oboe 1	*
*	*	*	*	*	*	*I"Tromba 2	*I"Tromba 1	*I"Corno 2	*I"Corno 1	*	*	*I"Clarinet 2	*I"Clarinet 1	*	*	*
*>[A,A,B,B,C,C,D,D]	*>[A,A,B,B,C,C,D,D]	*>[A,A,B,B,C,C,D,D]	*>[A,A,B,B,C,C,D,D]	*>[A,A,B,B,C,C,D,D]	*>[A,A,B,B,C,C,D,D]	*>[A,A,B,B,C,C,D,D]	*>[A,A,B,B,C,C,D,D]	*>[A,A,B,B,C,C,D,D]	*>[A,A,B,B,C,C,D,D]	*>[A,A,B,B,C,C,D,D]	*>[A,A,B,B,C,C,D,D]	*>[A,A,B,B,C,C,D,D]	*>[A,A,B,B,C,C,D,D]	*>[A,A,B,B,C,C,D,D]	*>[A,A,B,B,C,C,D,D]	*>[A,A,B,B,C,C,D,D]
*>norep[A,B,C,D]	*>norep[A,B,C,D]	*>norep[A,B,C,D]	*>norep[A,B,C,D]	*>norep[A,B,C,D]	*>norep[A,B,C,D]	*>norep[A,B,C,D]	*>norep[A,B,C,D]	*>norep[A,B,C,D]	*>norep[A,B,C,D]	*>norep[A,B,C,D]	*>norep[A,B,C,D]	*>norep[A,B,C,D]	*>norep[A,B,C,D]	*>norep[A,B,C,D]	*>norep[A,B,C,D]	*>norep[A,B,C,D]
=1	=1	=1	=1	=1	=1	=1	=1	=1	=1	=1	=1	=1	=1	=1	=1	=1
*>A	*>A	*>A	*>A	*>A	*>A	*>A	*>A	*>A	*>A	*>A	*>A	*>A	*>A	*>A	*>A	*>A
!layout:Basso.lyo	!layout:Violoncello.lyo	!layout:Viola.lyo	!layout:Violino_II.lyo	!layout:Violino_I.lyo	!layout:Timpani.lyo	!layout:Tromba_2.lyo	!layout:Tromba_1.lyo	!layout:Corno_2.lyo	!layout:Corno_1.lyo	!layout:Fagotto_2.lyo	!layout:Fagotto_1.lyo	!layout:Clarinet_2.lyo	!layout:Clarinet_1.lyo	!layout:Oboe_2.lyo	!layout:Oboe_1.lyo	!layout:Flauto.lyo
*staff:1	*staff:1	*staff:2	*staff:3	*staff:4	*staff:5	*staff:6	*staff:6	*staff:7	*staff:7	*staff:8	*staff:8	*staff:9	*staff:9	*staff:10	*staff:10	*staff:11
*clefF4	*clefF4	*clefC3	*clefG2	*clefG2	*clefF4	*clefG2	*clefG2	*clefG2	*clefG2	*clefF4	*clefF4	*clefG2	*clefG2	*clefG2	*clefG2	*clefG2
*k[b-e-a-]	*k[b-e-a-]	*k[b-e-a-]	*k[b-e-a-]	*k[b-e-a-]	*M3/4	*M3/4	*M3/4	*M3/4	*M3/4	*k[b-e-a-]	*k[b-e-a-]	*k[b-e-a-]	*k[b-e-a-]	*k[b-e-a-]	*k[b-e-a-]	*k[b-e-a-]
*M3/4	*M3/4	*M3/4	*M3/4	*M3/4	*	*	*	*	*	*M3/4	*M3/4	*M3/4	*M3/4	*M3/4	*M3/4	*M3/4
4r	4r	4r	4r	4b-'	4r	4r	4r	4r	4r	4r	4r	4r	4r	4r	4r	4bb-
=2	=2	=2	=2	=2	=2	=2	=2	=2	=2	=2	=2	=2	=2	=2	=2	=2
.	.	.	.	32ccQ	.	.	.	.	.	.	.	.	.	.	.	32cccQ
.	.	.	.	32b-Q	.	.	.	.	.	.	.	.	.	.	.	32bb-Q
.	.	.	.	32anQ	.	.	.	.	.	.	.	.	.	.	.	32aanQ
4EE-	4E-	4G 4e-	4G 4e-	4b-z	4E-	4e-	4ee-	4E-	4e-	4E-	4E-	4g	4b-	4g	4ee-	4bb-z
4r	4r	4r	4r	8ee-	4r	4ryy	4r	4ryy	4r	4r	4r	4ryy	4r	4ryy	4r	8eee-
.	.	.	.	8r	.	.	.	.	.	.	.	.	.	.	.	8r
4r	4r	4r	4r	4ee-'	4r	4ryy	4r	4ryy	4r	4r	4r	4ryy	4r	4ryy	4r	4eee-'
=3	=3	=3	=3	=3	=3	=3	=3	=3	=3	=3	=3	=3	=3	=3	=3	=3
4AAA-	4AA-	4c 4e-	4c 4e-	16ee-z	4E-	4e-	4ee-	4E-	4e-	4AA-	4AA-	4a-	4cc	4f	4ee-	16eee-z
.	.	.	.	8.f	.	.	.	.	.	.	.	.	.	.	.	8.ff
4r	4r	4r	4r	8f'	4r	4ryy	4r	4ryy	4r	4r	4r	4ryy	4r	4ryy	4r	8ff'
.	.	.	.	8r	.	.	.	.	.	.	.	.	.	.	.	8r
4r	4r	4r	4r	4f'	4r	4ryy	4r	4ryy	4r	4r	4r	4ryy	4r	4ryy	4r	4ff'
=4	=4	=4	=4	=4	=4	=4	=4	=4	=4	=4	=4	=4	=4	=4	=4	=4
.	.	.	.	32gQ	.	.	.	.	.	.	.	.	.	.	.	32ggQ
.	.	.	.	32fQ	.	.	.	.	.	.	.	.	.	.	.	32ffQ
.	.	.	.	32enQ	.	.	.	.	.	.	.	.	.	.	.	32eenQ
4BBB-	4BB-	4F 4A-	4A- 4d	4f	4BB-	4b-	4ff	4B-	4f	4BB-	4BB-	4a-	4dd	4f	4dd	4ff
4r	4r	4r	4r	8b-	4r	4ryy	4r	4ryy	4r	4r	4r	4ryy	4r	4ryy	4r	8bb-
.	.	.	.	8r	.	.	.	.	.	.	.	.	.	.	.	8r
4r	4r	4r	4r	4b-'	4r	4ryy	4r	4ryy	4r	4r	4r	4ryy	4r	4ryy	4r	4bb-'
=5	=5	=5	=5	=5	=5	=5	=5	=5	=5	=5	=5	=5	=5	=5	=5	=5
4EE-	4E-	4E- 4G	4G 4e-	16b-z	4E-	4ee-	4gg	4e-	4g	4E-	4E-	4g	4ee-	4g	4ee-	16bb-z
.	.	.	.	8.e-	.	.	.	.	.	.	.	.	.	.	.	8.ee-
4r	4r	4r	4r	8e-'	4r	4ryy	4r	4ryy	4r	4r	4r	4ryy	4r	4ryy	4r	8ee-'
.	.	.	.	8r	.	.	.	.	.	.	.	.	.	.	.	8r
4E-	4e-	4e-	4b- 4gg	4gg	4E-	4ee-	4gg	4e-	4g	4e-	4e-	4ee-	4gg	4b-	4gg	4gg
=6	=6	=6	=6	=6	=6	=6	=6	=6	=6	=6	=6	=6	=6	=6	=6	=6
.	.	.	.	16ffQ	.	.	.	.	.	.	.	.	.	.	.	16ffQ
.	.	.	.	16ggQ	.	.	.	.	.	.	.	.	.	.	.	16ggQ
2Dz	2dz	2dz	2b- 2ff	2aa-z	4BB-z	2b-	2ffz	2B-	2fz	2dz	2dz	2ff	2aa-z	2.b-	2aa-z	2aa-z
.	.	.	.	.	8BB-	.	.	.	.	.	.	.	.	.	.	.
.	.	.	.	.	8BB-	.	.	.	.	.	.	.	.	.	.	.
4E-	4e-	4e-	4b- 4gg	4gg	4E-	4ee-	4gg	4e-	4g	4e-	4e-	4ee-	4gg	.	4gg	4gg
=7	=7	=7	=7	=7	=7	=7	=7	=7	=7	=7	=7	=7	=7	=7	=7	=7
2.AA-	2.A-	2.f	2.f 2.dd	16ff	4r	4ff	4aa-	2.B-	2.f	2.A-	2.A-	8ff	8ff	2.dd	8ff	16ff
.	.	.	.	16aa-	.	.	.	.	.	.	.	.	.	.	.	16aa-
.	.	.	.	8r	.	.	.	.	.	.	.	8ryy	8r	.	8r	8r
.	.	.	.	16aa-	4r	4ryy	4r	.	.	.	.	8aa-	8aa-	.	8ccc	16aa-
.	.	.	.	16ccc	.	.	.	.	.	.	.	.	.	.	.	16ccc
.	.	.	.	8r	.	.	.	.	.	.	.	8ryy	8r	.	8r	8r
.	.	.	.	16dd	4BB-	4b-'y	4ff'	.	.	.	.	8a-	8dd	.	8dd	16dd
.	.	.	.	16ff	.	.	.	.	.	.	.	.	.	.	.	16ff
.	.	.	.	8r	.	.	.	.	.	.	.	8ryy	8r	.	8r	8r
=8	=8	=8	=8	=8	=8	=8	=8	=8	=8	=8	=8	=8	=8	=8	=8	=8
*staff:10	*staff:10	*staff:11	*staff:12	*staff:13	*staff:14	*staff:15	*staff:15	*staff:16	*staff:16	*staff:17	*staff:17	*staff:18	*staff:18	*staff:19	*staff:19	*staff:20
8GG	8G	8g	8e- 8ee-	8ee-	4E-	4g'	4ee-'y	4e-'y	4g'	8G	8G	8g	8ee-	8ee-	8ee-	8ee-
8r	8r	8r	8r	8r	.	.	.	.	.	8r	8r	8ryy	8r	8ryy	8r	8r
8DD	8D	8B-	8ff	8aa-	4BB-	4b-'y	4ff'	4f'y	4a-'	8D	8D	8a-	8ff	8ff	8aa-	8aa-
8r	8r	8r	8r	8r	.	.	.	.	.	8r	8r	8ryy	8r	8ryy	8r	8r
8EE-	8E-	8B-	8ee-	8gg	4E-	4ee-'y	4gg'	4e-'y	4g'	8E-	8E-	8g	8ee-	8ee-	8gg	8gg
8r	8r	8r	8r	8r	.	.	.	.	.	8r	8r	8ryy	8r	8ryy	8r	8r
=9	=9	=9	=9	=9	=9	=9	=9	=9	=9	=9	=9	=9	=9	=9	=9	=9
4BB-	4B-	4B-	4dd	16ffz	4BB-	4b-	4ff	4B-	4f	4B-	4B-	4f	4dd	4dd	4ff	16ffz
.	.	.	.	8.b-	.	.	.	.	.	.	.	.	.	.	.	8.b-
4r	4r	4r	4r	8b-'	4r	4ryy	4r	4ryy	4r	4r	4r	4ryy	4r	4ryy	4r	8b-'
.	.	.	.	8r	.	.	.	.	.	.	.	.	.	.	.	8r
4r	4r	4r	4r	4r	4r	4ryy	4r	4ryy	4r	4r	4r	4ryy	4r	4ryy	4r	4r
=10	=10	=10	=10	=10	=10	=10	=10	=10	=10	=10	=10	=10	=10	=10	=10	=10
2.r	2.r	2.r	2.r	2.r	2.r	2.r	2.r	16f	16f	16f	16f	16f	2.ryy	2.r	2.r	2.r
.	.	.	.	.	.	.	.	8.B-	8.B-	8.B-	8.B-	8.B-	.	.	.	.
.	.	.	.	.	.	.	.	8B-	8B-'	8B-'	8B-'	8B-'	.	.	.	.
.	.	.	.	.	.	.	.	8ryy	8r	8r	8r	8r	.	.	.	.
.	.	.	.	.	.	.	.	4ryy	4r	4r	4r	4r	.	.	.	.
=11	=11	=11	=11	=11	=11	=11	=11	=11	=11	=11	=11	=11	=11	=11	=11	=11
4r	4r	4r	4r	4r	4r	4r	4r	4r	4r	4r	4r	2ryy	16ff	16ff	16ff	16fff
.	.	.	.	.	.	.	.	.	.	.	.	.	8.b-	8.b-	8.b-	8.bb-
4r	4r	4r	4r	4r	4r	4r	4r	4r	4r	4r	4r	.	8b-'	8b-'	8b-'	8bb-'
.	.	.	.	.	.	.	.	.	.	.	.	.	8r	8r	8r	8r
=12:||:	=12:||:	=12:||:	=12:||:	=12:||:	=12:||:	=12:||:	=12:||:	=12:||:	=12:||:	=12:||:	=12:||:	=12:||:	=12:||:	=12:||:	=12:||:	=12:||:
*>B	*>B	*>B	*>B	*>B	*>B	*>B	*>B	*>B	*>B	*>B	*>B	*>B	*>B	*>B	*>B	*>B
4r	4r	4r	4r	4f	4r	4r	4r	4r	4r	4r	4r	4r	4r	4r	4r	4r
=13	=13	=13	=13	=13	=13	=13	=13	=13	=13	=13	=13	=13	=13	=13	=13	=13
2DD	2D	2A-	2B-	8f	2.r	2.r	2.r	2.r	2.r	2.r	2.r	2.r	2.r	2.r	2.r	2.r
.	.	.	.	8B-	.	.	.	.	.	.	.	.	.	.	.	.
.	.	.	.	4B-	.	.	.	.	.	.	.	.	.	.	.	.
4r	4r	4r	4r	4g-	.	.	.	.	.	.	.	.	.	.	.	.
=14	=14	=14	=14	=14	=14	=14	=14	=14	=14	=14	=14	=14	=14	=14	=14	=14
2EE-	2E-	2G-	2B-	8g-	2.r	2.r	2.r	2.r	2.r	2.r	2.r	2.r	2.r	2.r	2.r	2.r
.	.	.	.	8B-	.	.	.	.	.	.	.	.	.	.	.	.
.	.	.	.	4B-	.	.	.	.	.	.	.	.	.	.	.	.
4r	4r	4r	4r	4g-	.	.	.	.	.	.	.	.	.	.	.	.
=15	=15	=15	=15	=15	=15	=15	=15	=15	=15	=15	=15	=15	=15	=15	=15	=15
4CC-'	4C-'	4g-'	4e-'	4cc-'	2.r	2.r	2.r	2.E-	[2.e-	2.ryy	[2.G-	2.ryy	[2.cc-	2.r	2.r	2.r
4CC-'	4C-'	4g-'	4e-'	4cc-'	.	.	.	.	.	.	.	.	.	.	.	.
4CC-'	4C-'	4g-'	4e-'	4cc-'	.	.	.	.	.	.	.	.	.	.	.	.
=16	=16	=16	=16	=16	=16	=16	=16	=16	=16	=16	=16	=16	=16	=16	=16	=16
2.CC-	2.C-	2.g-	2.e-	4.cc-	2.r	2.r	2.r	2.E-	2.e-]	2.ryy	2.G-]	2.ryy	2.cc-]	2.r	2.r	2.r
.	.	.	.	8b-	.	.	.	.	.	.	.	.	.	.	.	.
.	.	.	.	8a-	.	.	.	.	.	.	.	.	.	.	.	.
.	.	.	.	8g-	.	.	.	.	.	.	.	.	.	.	.	.
=17	=17	=17	=17	=17	=17	=17	=17	=17	=17	=17	=17	=17	=17	=17	=17	=17
*staff:1	*staff:1	*staff:2	*staff:3	*staff:4	*	*	*	*	*staff:5	*	*staff:6	*	*staff:7	*staff:8	*staff:8	*staff:9
2.DD-	2.D-	2.A-	2.c-	4f	2.ryy	2.ryy	2.ryy	2.ryy	2.f	2.ryy	2.c-	2.ryy	2.a-	2.r	2.r	2.r
.	.	.	.	8f	.	.	.	.	.	.	.	.	.	.	.	.
.	.	.	.	8g-	.	.	.	.	.	.	.	.	.	.	.	.
.	.	.	.	8a-	.	.	.	.	.	.	.	.	.	.	.	.
.	.	.	.	8f	.	.	.	.	.	.	.	.	.	.	.	.
=18	=18	=18	=18	=18	=18	=18	=18	=18	=18	=18	=18	=18	=18	=18	=18	=18
4GGG-	4GG-	4B-	4B-	4g-	2.ryy	2.ryy	2.ryy	2.ryy	4g-	2.ryy	4B-	2.ryy	4b-	2.r	2.r	2.r
4r	4r	4r	4r	4b-	.	.	.	.	4r	.	4r	.	4r	.	.	.
4r	4r	4r	4r	4dd-	.	.	.	.	4r	.	4r	.	4r	.	.	.
=19	=19	=19	=19	=19	=19	=19	=19	=19	=19	=19	=19	=19	=19	=19	=19	=19
2.DD-	2.D-	2.A-	2.c-	4f	2.ryy	2.ryy	2.ryy	2.ryy	2.f	2.ryy	2.A-	2.ryy	2.a-	2.r	2.r	2.r
.	.	.	.	8f	.	.	.	.	.	.	.	.	.	.	.	.
.	.	.	.	8g-	.	.	.	.	.	.	.	.	.	.	.	.
.	.	.	.	8a-	.	.	.	.	.	.	.	.	.	.	.	.
.	.	.	.	8f	.	.	.	.	.	.	.	.	.	.	.	.
=20	=20	=20	=20	=20	=20	=20	=20	=20	=20	=20	=20	=20	=20	=20	=20	=20
4GGG-	4GG-	4B-	4B-	8g-	2.ryy	2.ryy	2.ryy	2.ryy	4g-	2.ryy	4B-	2.ryy	4b-	2.r	2.r	4r
.	.	.	.	8f	.	.	.	.	.	.	.	.	.	.	.	.
4r	4r	4r	4r	8g-	.	.	.	.	4r	.	4r	.	4r	.	.	4r
.	.	.	.	8a-	.	.	.	.	.	.	.	.	.	.	.	.
4r	4r	4r	4r	4b-	.	.	.	.	4r	.	4r	.	4r	.	.	4b-
=21	=21	=21	=21	=21	=21	=21	=21	=21	=21	=21	=21	=21	=21	=21	=21	=21
.	.	.	.	32cc-Q	.	.	.	.	.	.	.	.	.	.	.	32cc-Q
.	.	.	.	32b-Q	.	.	.	.	.	.	.	.	.	.	.	32b-Q
.	.	.	.	32anQ	.	.	.	.	.	.	.	.	.	.	.	32anQ
*	*	*	*	*	*	*	*	*staff:5	*	*staff:6	*	*staff:7	*	*	*	*
4r	4r	4r	4r	4b-	2.ryy	2.ryy	2.ryy	2.r	2.ryy	4r	4r	2.r	2.r	2.b-	[2.bb-	4b-
4r	4r	4r	4r	8bb-	.	.	.	.	.	4r	4r	.	.	.	.	8bb-
.	.	.	.	8r	.	.	.	.	.	.	.	.	.	.	.	8r
4EE-	4E-	4e-	4g-	4bb-'	.	.	.	.	.	4E-	4E-	.	.	.	.	4bb-'
=22	=22	=22	=22	=22	=22	=22	=22	=22	=22	=22	=22	=22	=22	=22	=22	=22
32FQ	32FQ	32fQ	32a-Q	.	.	.	.	.	.	.	.	.	.	.	.	.
32E-Q	32E-Q	32e-Q	32g-Q	.	.	.	.	.	.	.	.	.	.	.	.	.
32DQ	32DQ	32dQ	32fQ	.	.	.	.	.	.	.	.	.	.	.	.	.
4EE-	4E-	4e-	4g-X	16bb-	2.ryy	2.ryy	2.ryy	2.r	2.ryy	2.E-	2.E-	2.g-	2.g-	2.b-	2.bb-]	16bb-
.	.	.	.	8.cc-	.	.	.	.	.	.	.	.	.	.	.	8.cc-
8E-	8e-	8ee-	8gg-X	8cc-'	.	.	.	.	.	.	.	.	.	.	.	8cc-'
8r	8r	8r	8r	8r	.	.	.	.	.	.	.	.	.	.	.	8r
4E-	4e-	4ee-	4gg-	4cc-	.	.	.	.	.	.	.	.	.	.	.	4cc-
=23	=23	=23	=23	=23	=23	=23	=23	=23	=23	=23	=23	=23	=23	=23	=23	=23
.	.	.	.	32dd-Q	.	.	.	.	.	.	.	.	.	.	.	32dd-Q
.	.	.	.	32cc-Q	.	.	.	.	.	.	.	.	.	.	.	32cc-Q
.	.	.	.	32b-Q	.	.	.	.	.	.	.	.	.	.	.	32b-Q
8.E-z	8.e-z	16ee-z	16gg-z	4cc-Xz	2.ryy	2.ryy	2.ryy	2.r	2.ryy	2.F	2.F	4a-	4a-	2.cc	[2.aa-z	4cc-X
.	.	8.f	8.a-	.	.	.	.	.	.	.	.	.	.	.	.	.
16FF	16F	.	.	.	.	.	.	.	.	.	.	.	.	.	.	.
8FF'	8F'	8f'	8a-'	8aa-	.	.	.	.	.	.	.	4r	4r	.	.	8aa-
8r	8r	8r	8r	8r	.	.	.	.	.	.	.	.	.	.	.	8r
4FF	4F	4f	4a-	4aa-	.	.	.	.	.	.	.	4r	4r	.	.	4aa-
=24	=24	=24	=24	=24	=24	=24	=24	=24	=24	=24	=24	=24	=24	=24	=24	=24
*staff:12	*staff:12	*staff:13	*staff:14	*staff:15	*staff:16	*staff:17	*staff:17	*staff:18	*staff:18	*staff:19	*staff:19	*staff:20	*staff:20	*staff:21	*staff:21	*staff:22
32GnQ	32GnQ	32gnQ	32b-Q	.	.	.	.	.	.	.	.	.	.	.	.	.
32FQ	32FQ	32fQ	32a-Q	.	.	.	.	.	.	.	.	.	.	.	.	.
32EnQ	32EnQ	32enQ	32gnQ	.	.	.	.	.	.	.	.	.	.	.	.	.
4FF	4F	4f	4a-	16aa-z	4BB-	2.b-	2.ff	2.B-	2.f	2.Dn	2.Dn	2.f	2.f	2.b-	2.aa-z]	16aa-z
.	.	.	.	8.b-	.	.	.	.	.	.	.	.	.	.	.	8.b-
8D	8dn	8ddn	8ff	8b-'	8BB-	.	.	.	.	.	.	.	.	.	.	8b-'
8r	8r	8r	8r	8r	8BB-	.	.	.	.	.	.	.	.	.	.	8r
4D	4d	4dd	4ff	4b-	8BB-	.	.	.	.	.	.	.	.	.	.	4b-
.	.	.	.	.	8BB-	.	.	.	.	.	.	.	.	.	.	.
=25	=25	=25	=25	=25	=25	=25	=25	=25	=25	=25	=25	=25	=25	=25	=25	=25
.	.	.	.	32cc-Q	.	.	.	.	.	.	.	.	.	.	.	32cc-Q
.	.	.	.	32b-Q	.	.	.	.	.	.	.	.	.	.	.	32b-Q
.	.	.	.	32anQ	.	.	.	.	.	.	.	.	.	.	.	32anQ
16Dz	16dz	16ddz	16ffz	4b-z	4E-	2.e-	2.ee-	2.E-	2.e-	2.E-z	2.E-z	4g-	4g-	2.b-	2.gg-z	4b-
8.EE-	8.E-	8.e-	8.g-	.	.	.	.	.	.	.	.	.	.	.	.	.
8EE-'	8E-'	8e-'	8g-'	8gg-	4r	.	.	.	.	.	.	4r	4r	.	.	8gg-
8r	8r	8r	8r	8r	.	.	.	.	.	.	.	.	.	.	.	8r
4EE-	4E-	4e-	4B-	4gg-	4r	.	.	.	.	.	.	4r	4r	.	.	4gg-
=26	=26	=26	=26	=26	=26	=26	=26	=26	=26	=26	=26	=26	=26	=26	=26	=26
2.CC-z	2.C-z	2.E-z	2.Anz	8aa-Xz	4E-	2.e-	2.ee-	2.E-	2.e-	2.C-z	2.C-z	2g-z	2g-z	2.e-	2.an	8aa-X
.	.	.	.	8gg-	.	.	.	.	.	.	.	.	.	.	.	8gg-
.	.	.	.	8gg-	4r	.	.	.	.	.	.	.	.	.	.	8gg-
.	.	.	.	8ff	.	.	.	.	.	.	.	.	.	.	.	8ff
.	.	.	.	8ff	4r	.	.	.	.	.	.	4e-	4e-	.	.	8ff
.	.	.	.	8ee-	.	.	.	.	.	.	.	.	.	.	.	8ee-
=27	=27	=27	=27	=27	=27	=27	=27	=27	=27	=27	=27	=27	=27	=27	=27	=27
4BBB-	4BB-	4F	4B-	8ee-	4BB-	4b-	4ff	4B-	4f	4BB-	4BB-	4b-	4b-	4d	4b-	8ee-
.	.	.	.	8dd	.	.	.	.	.	.	.	.	.	.	.	8dd
4r	4r	4r	4r	8dd	4r	4ryy	4r	4ryy	4r	4r	4r	4r	4r	4ryy	4r	8dd
.	.	.	.	8ccn	.	.	.	.	.	.	.	.	.	.	.	8ccn
4r	4r	4r	4r	8cc	4r	4ryy	4r	4ryy	4r	4r	4r	4r	4r	4ryy	4r	8cc
.	.	.	.	8b-	.	.	.	.	.	.	.	.	.	.	.	8b-
=28	=28	=28	=28	=28	=28	=28	=28	=28	=28	=28	=28	=28	=28	=28	=28	=28
2.CC-z	2.C-z	2.E-z	2.Anz	8aa-Xz	4E-	2.e-	2.ee-	2.E-	2.e-	2.C-z	2.C-z	2g-z	2g-z	2.e-	2.an	8aa-Xz
.	.	.	.	8gg-	.	.	.	.	.	.	.	.	.	.	.	8gg-
.	.	.	.	8gg-	4r	.	.	.	.	.	.	.	.	.	.	8gg-
.	.	.	.	8ff	.	.	.	.	.	.	.	.	.	.	.	8ff
.	.	.	.	8ff	4r	.	.	.	.	.	.	4e-	4e-	.	.	8ff
.	.	.	.	8ee-	.	.	.	.	.	.	.	.	.	.	.	8ee-
=29	=29	=29	=29	=29	=29	=29	=29	=29	=29	=29	=29	=29	=29	=29	=29	=29
4BBB-	4BB-	4F	4B-	8ee-	4BB-	4b-	4ff	4B-	4f	4BB-	4BB-	4b-	4b-	4d	4b-	8ee-
.	.	.	.	8dd	.	.	.	.	.	.	.	.	.	.	.	8dd
4r	4r	4r	4r	8dd	4r	4ryy	4r	4ryy	4r	4r	4r	4r	4r	4ryy	4r	8dd
.	.	.	.	8cc	.	.	.	.	.	.	.	.	.	.	.	8cc
4r	4r	4r	4r	8cc	4r	4ryy	4r	4ryy	4r	4r	4r	4r	4r	4ryy	4r	8cc
.	.	.	.	8b-	.	.	.	.	.	.	.	.	.	.	.	8b-
=30	=30	=30	=30	=30	=30	=30	=30	=30	=30	=30	=30	=30	=30	=30	=30	=30
2.r	2.r	2.r	2.r	8aa-	2.r	2.r	2.r	2.r	2.r	2.r	2.r	2.r	2.r	2.r	2.r	2.r
.	.	.	.	8gg-	.	.	.	.	.	.	.	.	.	.	.	.
.	.	.	.	8gg-	.	.	.	.	.	.	.	.	.	.	.	.
.	.	.	.	8ff	.	.	.	.	.	.	.	.	.	.	.	.
.	.	.	.	8ff	.	.	.	.	.	.	.	.	.	.	.	.
.	.	.	.	8ee-	.	.	.	.	.	.	.	.	.	.	.	.
=31	=31	=31	=31	=31	=31	=31	=31	=31	=31	=31	=31	=31	=31	=31	=31	=31
*staff:1	*staff:1	*staff:2	*staff:3	*staff:4	*staff:5	*staff:6	*staff:6	*staff:7	*staff:7	*staff:8	*staff:8	*staff:9	*staff:9	*staff:10	*staff:10	*staff:11
2.r	2.r	2.r	2.r	8gg-	2.r	2.r	2.r	2.r	2.r	2.r	2.r	2.r	2.r	2.r	2.r	2.r
.	.	.	.	8ff	.	.	.	.	.	.	.	.	.	.	.	.
.	.	.	.	8ff	.	.	.	.	.	.	.	.	.	.	.	.
.	.	.	.	8ee-	.	.	.	.	.	.	.	.	.	.	.	.
.	.	.	.	8ee-	.	.	.	.	.	.	.	.	.	.	.	.
.	.	.	.	8dd	.	.	.	.	.	.	.	.	.	.	.	.
=32	=32	=32	=32	=32	=32	=32	=32	=32	=32	=32	=32	=32	=32	=32	=32	=32
2.r	2.r	2.r	2.r	8ff	2.r	2.r	2.r	2.r	2.r	2.r	2.r	2.r	2.r	2.r	2.r	2.r
.	.	.	.	8ee-	.	.	.	.	.	.	.	.	.	.	.	.
.	.	.	.	8ee-	.	.	.	.	.	.	.	.	.	.	.	.
.	.	.	.	8dd	.	.	.	.	.	.	.	.	.	.	.	.
.	.	.	.	8dd	.	.	.	.	.	.	.	.	.	.	.	.
.	.	.	.	8cc	.	.	.	.	.	.	.	.	.	.	.	.
=33	=33	=33	=33	=33	=33	=33	=33	=33	=33	=33	=33	=33	=33	=33	=33	=33
2.r	2.r	2.r	4r	8ee-	2.r	2.r	2.r	4ryy	4r	4r	4r	4ryy	4r	4ryy	4r	4r
.	.	.	.	8dd	.	.	.	.	.	.	.	.	.	.	.	.
.	.	.	4r	8dd	.	.	.	4ryy	4r	4r	4r	4ryy	4r	4ryy	4r	4r
.	.	.	.	8cc	.	.	.	.	.	.	.	.	.	.	.	.
.	.	.	4G 4e-	8cc	.	.	.	4G	4e-	4B-	4B-	4g	4b-	4b-	4b-	4bb-
.	.	.	.	8b-	.	.	.	.	.	.	.	.	.	.	.	.
=34	=34	=34	=34	=34	=34	=34	=34	=34	=34	=34	=34	=34	=34	=34	=34	=34
.	.	.	.	32ccQ	.	.	.	.	.	32cQ	32cQ	.	.	.	.	32cccQ
.	.	.	.	32b-Q	.	.	.	.	.	32B-Q	32B-Q	.	.	.	.	32bb-Q
.	.	.	.	32anQ	.	.	.	.	.	32AnQ	32AnQ	.	.	.	.	32aanQ
4EE-	4E-	4G 4e-	4G 4e-	4b-	4E-	4g	4ee-	4G	4e-	4B-	4B-	4g	4b-	4gn	4b-	4bb-
4r	4r	4r	4r	8ee-	4r	4ryy	4r	4ryy	4r	8e-	8e-	4ryy	4r	4ryy	4r	8eee-
.	.	.	.	8r	.	.	.	.	.	8r	8r	.	.	.	.	8r
4r	4r	4r	4r	4ee-'	4r	4ryy	4r	4ryy	4r	4e-	4e-	4ryy	4r	4ryy	4r	4eee-'
=35	=35	=35	=35	=35	=35	=35	=35	=35	=35	=35	=35	=35	=35	=35	=35	=35
4AAA-	4AA-	4c 4e-	4c 4e-	16ee-z	4E-	4e-	4ee-	4E-	4e-	16e-z	16e-z	4a-	4cc	4f	4cc	16eee-z
.	.	.	.	8.f	.	.	.	.	.	8.F	8.F	.	.	.	.	8.ff
4r	4r	4r	4r	8f'	4r	4ryy	4r	4ryy	4r	8F	8F	4ryy	4r	4ryy	4r	8ff'
.	.	.	.	8r	.	.	.	.	.	8r	8r	.	.	.	.	8r
4r	4r	4r	4r	4f'	4r	4ryy	4r	4ryy	4r	4F	4F	4ryy	4r	4ryy	4r	4ff'
=36	=36	=36	=36	=36	=36	=36	=36	=36	=36	=36	=36	=36	=36	=36	=36	=36
.	.	.	.	32gQ	.	.	.	.	.	32GQ	32GQ	.	.	.	.	32ggQ
.	.	.	.	32fQ	.	.	.	.	.	32FQ	32FQ	.	.	.	.	32ffQ
.	.	.	.	32enQ	.	.	.	.	.	32EnQ	32EnQ	.	.	.	.	32eenQ
4BBB-	4BB-	4F 4A-	4A- 4d	4f	4BB-	4b-	4ff	4B-	4f	4F	4F	4a-	4dd	4f	4dd	4ff
4r	4r	4r	4r	8b-	4r	4ryy	4r	4ryy	4r	8B-	8B-	4ryy	4r	4ryy	4r	8bb-
.	.	.	.	8r	.	.	.	.	.	8r	8r	.	.	.	.	8r
4r	4r	4r	4r	4b-'	4r	4ryy	4r	4ryy	4r	4B-	4B-	4ryy	4r	4ryy	4r	4bb-'
=37	=37	=37	=37	=37	=37	=37	=37	=37	=37	=37	=37	=37	=37	=37	=37	=37
4EE-	4E-	4E- 4G	4G 4e-	16b-z	4E-	4ee-	4gg	4e-	4g	16B-z	16B-z	4g	4ee-	4g	4ee-	16bb-z
.	.	.	.	8.e-	.	.	.	.	.	8.E-	8.E-	.	.	.	.	8.ee-
4r	4r	4r	4r	8e-'	4r	4ryy	4r	4ryy	4r	8E-	8E-	4ryy	4r	4ryy	4r	8ee-'
.	.	.	.	8r	.	.	.	.	.	8r	8r	.	.	.	.	8r
4E-	4e-	4e-	4b- 4gg	4gg	4E-	4ee-	4gg	4e-	4g	4e-	4e-	4ee-	4gg	4b-	4gg	4gg
=38	=38	=38	=38	=38	=38	=38	=38	=38	=38	=38	=38	=38	=38	=38	=38	=38
.	.	.	.	16ffQ	.	.	.	.	.	.	.	.	.	.	.	16ffQ
.	.	.	.	16ggQ	.	.	.	.	.	.	.	.	.	.	.	16ggQ
2Dz	2dz	2dz	2b- 2ff	2aa-z	4BB-z	2b-	2ffz	2B-	2fz	2dz	2dz	2ff	2aa-z	2.b-	2aa-z	2aa-z
.	.	.	.	.	8BB-	.	.	.	.	.	.	.	.	.	.	.
.	.	.	.	.	8BB-	.	.	.	.	.	.	.	.	.	.	.
4E-	4e-	4e-	4b- 4gg	4gg	4E-	4ee-	4gg	4e-	4g	4e-	4e-	4ee-	4gg	.	4gg	4gg
=39	=39	=39	=39	=39	=39	=39	=39	=39	=39	=39	=39	=39	=39	=39	=39	=39
*staff:12	*staff:12	*staff:13	*staff:14	*staff:15	*staff:16	*staff:17	*staff:17	*staff:18	*staff:18	*staff:19	*staff:19	*staff:20	*staff:20	*staff:21	*staff:21	*staff:22
2.AA-	2.A-	2.f	2.f 2.dd	16ff	4r	4ff	4aa-	2.B-	2.f	2.A-	2.A-	8ff	8ff	2.dd	2.ff	16ff
.	.	.	.	16aa-	.	.	.	.	.	.	.	.	.	.	.	16aa-
.	.	.	.	8r	.	.	.	.	.	.	.	8ryy	8r	.	.	8r
.	.	.	.	16aa-	4r	4ryy	4r	.	.	.	.	8aa-	8aa-	.	.	16aa-
.	.	.	.	16ccc	.	.	.	.	.	.	.	.	.	.	.	16ccc
.	.	.	.	8r	.	.	.	.	.	.	.	8ryy	8r	.	.	8r
.	.	.	.	16dd	4BB-	4b-'y	4ff'	.	.	.	.	8a-	8dd	.	.	16dd
.	.	.	.	16ff	.	.	.	.	.	.	.	.	.	.	.	16ff
.	.	.	.	8r	.	.	.	.	.	.	.	8ryy	8r	.	.	8r
=40	=40	=40	=40	=40	=40	=40	=40	=40	=40	=40	=40	=40	=40	=40	=40	=40
8GG	8G	8g	8e- 8ee-	16ee-	4E-	4ee-'y	4gg'	4e-'y	4g'	8G	8G	8g	8ee-	8ee-	8gg	16ee-
.	.	.	.	16gg	.	.	.	.	.	.	.	.	.	.	.	16gg
8r	8r	8r	8r	8r	.	.	.	.	.	8r	8r	8ryy	8r	8ryy	8r	8r
8AAA-	8AA-	8A-	8ff	16ff	4r	4ff'y	4aa-'	4f'y	4a-'	8AA-	8AA-	8cc	8ff	8ff	8aa-	16ff
.	.	.	.	16aa-	.	.	.	.	.	.	.	.	.	.	.	16aa-
8r	8r	8r	8r	8r	.	.	.	.	.	8r	8r	8ryy	8r	8ryy	8r	8r
8BBB-	8BB-	8B-	8f 8dd	16dd	4BB-	4b-'y	4ff'	4B-'y	4f'	8BB-	8BB-	8a-	8dd	8dd	8ff	16dd
.	.	.	.	16ff	.	.	.	.	.	.	.	.	.	.	.	16ff
8r	8r	8r	8r	8r	.	.	.	.	.	8r	8r	8ryy	8r	8ryy	8r	8r
=41	=41	=41	=41	=41	=41	=41	=41	=41	=41	=41	=41	=41	=41	=41	=41	=41
8CC	8C	4c	8e- 8ee-	8ee-	4E-	4ee-	4ee-	4e-	4e-	8C	8C	8g	8ee-	4ee-	4ee-	8ee-
8C	8c	.	8an	8eee-	.	.	.	.	.	8c	8c	8a	8a	.	.	8eee-
4C'	4c'	4c	4a'	4eee-'	8E-	4ee-	4ee-	4e-	4e-	4c'	4c'	4a	4a	4ee-	4aan	4eee-'
.	.	.	.	.	8E-	.	.	.	.	.	.	.	.	.	.	.
4C'	4c'	4c	4a'	4eee-'	8E-	4ee-	4ee-	4e-	4e-	4c'	4c'	4a	4a	4ee-	4aa	4eee-'
.	.	.	.	.	8E-	.	.	.	.	.	.	.	.	.	.	.
=42	=42	=42	=42	=42	=42	=42	=42	=42	=42	=42	=42	=42	=42	=42	=42	=42
4C	4c	4c	4an	4eee-	4E-	4ee-	4ee-	4e-	4e-	4c	4c	4a	4a	4ee-	4aan	4eee-
4r	4r	4r	4r	4r	4r	4r	4r	4r	4r	4r	4r	4ryy	4r	4ryy	4r	4r
4r	4r	4r	4r	4r	4r	4r	4r	4r	4r	4r	4r	4ryy	4r	4ryy	4r	4r
=43	=43	=43	=43	=43	=43	=43	=43	=43	=43	=43	=43	=43	=43	=43	=43	=43
4C-'	4c-'	4a-X	4ff	8dd	2.r	2.r	2.r	2.r	2.r	4c-'	4c-'	4dd	4ff	4ff	4aa-X	8dd
.	.	.	.	8ddd	.	.	.	.	.	.	.	.	.	.	.	8ddd
4C-'	4c-'	4a-	4ff	4ddd'	.	.	.	.	.	4c-'	4c-'	4dd	4ff	4ff	4aa-	4ddd'
4C-'	4c-'	4a-	4ff	4ddd'	.	.	.	.	.	4c-'	4c-'	4dd	4ff	4ff	4aa-	4ddd'
=44	=44	=44	=44	=44	=44	=44	=44	=44	=44	=44	=44	=44	=44	=44	=44	=44
4C-	4c-	4a-	4ff	4ddd	2.r	2.r	2.r	2.r	2.r	4c-	4c-	4dd	4ff	4ff	4aa-	4ddd
4r	4r	4r	4r	4r	.	.	.	.	.	4r	4r	4ryy	4r	4ryy	4r	4r
4r	4r	4r	4r	4r	.	.	.	.	.	4r	4r	4ryy	4r	4ryy	4r	4r
=45	=45	=45	=45	=45	=45	=45	=45	=45	=45	=45	=45	=45	=45	=45	=45	=45
4BB-'	4B-'	4B-'	4g'y 4ee-'	8ee-	4BB-	2.ee-	[2.gg	2.g	[2.b-	[2.B-	[2.B-	2.g	[2.ee-	2.ee-	[2.gg	8ee-
.	.	.	.	8eee-	.	.	.	.	.	.	.	.	.	.	.	8eee-
4BB-'	4B-'	4B-'	4g'y 4ee-'	4eee-'	4r	.	.	.	.	.	.	.	.	.	.	4eee-'
4BB-'	4B-'	4B-'	4g'y 4ee-'	4eee-'	4r	.	.	.	.	.	.	.	.	.	.	4eee-'
=46	=46	=46	=46	=46	=46	=46	=46	=46	=46	=46	=46	=46	=46	=46	=46	=46
4BB-	4B-	4B-	16ee-	16eee-	4BB-	2.ee-	2.gg_	2.g	2.b-_	2.B-_	2.B-_	2.g	2.ee-_	2.ee-	2.gg_	16eee-
.	.	.	16b-	16bb-	.	.	.	.	.	.	.	.	.	.	.	16bb-
.	.	.	8r	8r	.	.	.	.	.	.	.	.	.	.	.	8r
4r	4r	4r	16b-	16bb-	4r	.	.	.	.	.	.	.	.	.	.	16bb-
.	.	.	16g	16gg	.	.	.	.	.	.	.	.	.	.	.	16gg
.	.	.	8r	8r	.	.	.	.	.	.	.	.	.	.	.	8r
4r	4r	4r	16g	16gg	4r	.	.	.	.	.	.	.	.	.	.	16gg
.	.	.	16e-	16ee-	.	.	.	.	.	.	.	.	.	.	.	16ee-
.	.	.	8r	8r	.	.	.	.	.	.	.	.	.	.	.	8r
=47	=47	=47	=47	=47	=47	=47	=47	=47	=47	=47	=47	=47	=47	=47	=47	=47
*staff:1	*staff:1	*staff:2	*staff:3	*staff:4	*staff:5	*staff:6	*staff:6	*staff:7	*staff:7	*staff:8	*staff:8	*staff:9	*staff:9	*staff:10	*staff:10	*staff:11
4BB-	4B-	4G 4e-	16ee-	16eee-	4BB-	2.ee-	2.gg_	2.g	2.b-_	2.B-_	2.B-_	2.g	2.ee-_	2.ee-	2.gg_	16eee-
.	.	.	16b-	16bb-	.	.	.	.	.	.	.	.	.	.	.	16bb-
.	.	.	8r	8r	.	.	.	.	.	.	.	.	.	.	.	8r
4r	4r	4r	16b-	16bb-	4r	.	.	.	.	.	.	.	.	.	.	16bb-
.	.	.	16g	16gg	.	.	.	.	.	.	.	.	.	.	.	16gg
.	.	.	8r	8r	.	.	.	.	.	.	.	.	.	.	.	8r
4r	4r	4r	16g	16gg	4r	.	.	.	.	.	.	.	.	.	.	16gg
.	.	.	16e-	16ee-	.	.	.	.	.	.	.	.	.	.	.	16ee-
.	.	.	8r	8r	.	.	.	.	.	.	.	.	.	.	.	8r
=48	=48	=48	=48	=48	=48	=48	=48	=48	=48	=48	=48	=48	=48	=48	=48	=48
4BB-	4B-	4G 4e-	16ee-	16eee-	8BB-	2ee-	2gg]	2.g	2.b-]	2.B-]	2.B-]	2g	2ee-]	2ee-	2gg]	16eee-
.	.	.	16b-	16bb-	.	.	.	.	.	.	.	.	.	.	.	16bb-
.	.	.	8r	8r	8BB-	.	.	.	.	.	.	.	.	.	.	8r
4r	4r	4r	16b-	16bb-	8BB-	.	.	.	.	.	.	.	.	.	.	16bb-
.	.	.	16g	16gg	.	.	.	.	.	.	.	.	.	.	.	16gg
.	.	.	8r	8r	8BB-	.	.	.	.	.	.	.	.	.	.	8r
4r	4r	4r	16b-	16bb-	8BB-	4gg	4bb-	.	.	.	.	4ee-	4gg	4gg	4bb-	16bb-
.	.	.	16g	16gg	.	.	.	.	.	.	.	.	.	.	.	16gg
.	.	.	8r	8r	8BB-	.	.	.	.	.	.	.	.	.	.	8r
=49	=49	=49	=49	=49	=49	=49	=49	=49	=49	=49	=49	=49	=49	=49	=49	=49
4r	4r	4r	16a-	16aa-	4BB-	4ff	4aa-	4f	4a-	4B-	4B-	4ff	4aa-	4ff	4aa-	16aa-
.	.	.	16f	16ff	.	.	.	.	.	.	.	.	.	.	.	16ff
.	.	.	8r	8r	.	.	.	.	.	.	.	.	.	.	.	8r
4r	4r	4r	16g	16gg	4r	4ee-	4gg	4e-	4g	4r	4r	4ee-	4gg	4ee-	4gg	16gg
.	.	.	16e-	16ee-	.	.	.	.	.	.	.	.	.	.	.	16ee-
.	.	.	8r	8r	.	.	.	.	.	.	.	.	.	.	.	8r
4BB-	4B-	4B-	16f	16ff	4BB-	4b-	4ff	4B-	4f	4BB-	4BB-	4dd	4ff	4dd	4ff	16ff
.	.	.	16B-	16b-	.	.	.	.	.	.	.	.	.	.	.	16b-
.	.	.	8r	8r	.	.	.	.	.	.	.	.	.	.	.	8r
=50	=50	=50	=50	=50	=50	=50	=50	=50	=50	=50	=50	=50	=50	=50	=50	=50
4EE-	4E-	4E-	16e-	16ee-	4E-	4g	4ee-	4G	4e-	4E-	4E-	4ee-	4ee-	4ee-	4ee-	16ee-
.	.	.	16G	16e-	.	.	.	.	.	.	.	.	.	.	.	16e-
.	.	.	8r	8r	.	.	.	.	.	.	.	.	.	.	.	8r
4r	4r	4r	4r	4r	4r	4ryy	4r	4ryy	4r	4r	4r	16ryy	4r	4ryy	4r	4r
.	.	.	.	.	.	.	.	.	.	.	.	16ryy	.	.	.	.
.	.	.	.	.	.	.	.	.	.	.	.	16ryy	.	.	.	.
.	.	.	.	.	.	.	.	.	.	.	.	16ryy	.	.	.	.
!!WARNING: This measure contained too few data records
=51:||:	=51:||:	=51:||:	=51:||:	=51:||:	=51:||:	=51:||:	=51:||:	=51:||:	=51:||:	=51:||:	=51:||:	=51:||:	=51:||:	=51:||:	=51:||:	=51:||:
*>C	*>C	*>C	*>C	*>C	*>C	*>C	*>C	*>C	*>C	*>C	*>C	*>C	*>C	*>C	*>C	*>C
4r	4r	4r	4r	8b-	4r	4r	4r	4r	4r	4r	4r	4ryy	8b-	4r	4r	4r
.	.	.	.	8ee-	.	.	.	.	.	.	.	.	8ee-	.	.	.
=52	=52	=52	=52	=52	=52	=52	=52	=52	=52	=52	=52	=52	=52	=52	=52	=52
2.r	2.r	2.r	2.r	8b-	2.r	2.r	2.r	2.r	2.r	2.r	2.r	2.ryy	8b-	2.r	2.r	2.r
.	.	.	.	8g	.	.	.	.	.	.	.	.	8g	.	.	.
.	.	.	.	8cc	.	.	.	.	.	.	.	.	8cc	.	.	.
.	.	.	.	8a-	.	.	.	.	.	.	.	.	8a-	.	.	.
.	.	.	.	8f	.	.	.	.	.	.	.	.	8f	.	.	.
.	.	.	.	8d	.	.	.	.	.	.	.	.	8d	.	.	.
=53	=53	=53	=53	=53	=53	=53	=53	=53	=53	=53	=53	=53	=53	=53	=53	=53
2.r	2.r	2.r	2.r	8e-	2.r	2.r	2.r	2.r	2.r	2.r	2.r	2.ryy	8e-	2.r	2.r	2.r
.	.	.	.	8g	.	.	.	.	.	.	.	.	8g	.	.	.
.	.	.	.	8b-	.	.	.	.	.	.	.	.	8b-	.	.	.
.	.	.	.	8ee-	.	.	.	.	.	.	.	.	8ee-	.	.	.
.	.	.	.	8gg	.	.	.	.	.	.	.	.	8gg	.	.	.
.	.	.	.	8ee-	.	.	.	.	.	.	.	.	8ee-	.	.	.
=54	=54	=54	=54	=54	=54	=54	=54	=54	=54	=54	=54	=54	=54	=54	=54	=54
2.r	2.r	2.r	8B-	4dd	2.r	2.r	2.r	2.r	2.r	2.r	2.r	8B-	4dd	2.r	2.r	2.r
.	.	.	8d	.	.	.	.	.	.	.	.	8d	.	.	.	.
.	.	.	8f	4r	.	.	.	.	.	.	.	8f	4r	.	.	.
.	.	.	8a-	.	.	.	.	.	.	.	.	8a-	.	.	.	.
.	.	.	8cc	8aa-	.	.	.	.	.	.	.	8cc	8aa-	.	.	.
.	.	.	8a-	8ff	.	.	.	.	.	.	.	8a-	8ff	.	.	.
=55	=55	=55	=55	=55	=55	=55	=55	=55	=55	=55	=55	=55	=55	=55	=55	=55
2.r	2.r	8G	4g	4ee-	2.r	2.r	2.r	2.r	2.r	2.ryy	8G	4g	4ee-	2.r	2.r	2.r
.	.	8B-	.	.	.	.	.	.	.	.	8B-	.	.	.	.	.
.	.	8d	4r	4r	.	.	.	.	.	.	8d	4r	4r	.	.	.
.	.	8e-	.	.	.	.	.	.	.	.	8e-	.	.	.	.	.
.	.	8g	8e-	8bb-	.	.	.	.	.	.	8g	4r	8bb-	.	.	.
.	.	8e-	8ee-	8gg	.	.	.	.	.	.	8e-	.	8gg	.	.	.
=56	=56	=56	=56	=56	=56	=56	=56	=56	=56	=56	=56	=56	=56	=56	=56	=56
*staff:13	*staff:13	*staff:14	*staff:15	*staff:16	*	*	*	*staff:17	*staff:17	*	*staff:18	*staff:19	*staff:19	*	*	*
2.r	8AA-	4a-	4ee-	2ccc	2.ryy	2.ryy	2.ryy	2.r	2.r	2.ryy	4c	2.r	2ccc	2.ryy	2.ryy	2.ryy
.	8C	.	.	.	.	.	.	.	.	.	.	.	.	.	.	.
.	8F	4r	4r	.	.	.	.	.	.	.	4r	.	.	.	.	.
.	8A-	.	.	.	.	.	.	.	.	.	.	.	.	.	.	.
.	8c'	4r	8e-	8aa-	.	.	.	.	.	.	4r	.	8aa-	.	.	.
.	8A-'	.	8f	8ff	.	.	.	.	.	.	.	.	8ff	.	.	.
=57	=57	=57	=57	=57	=57	=57	=57	=57	=57	=57	=57	=57	=57	=57	=57	=57
*	*	*	*	*	*	*	*	*	*	*staff:18	*	*	*	*	*	*
4BBB-	4B-	4g	4g	8ee-	2.ryy	2.ryy	2.ryy	2.r	2.r	2.r	2.r	2.r	8ee-	2.ryy	2.ryy	2.ryy
.	.	.	.	8ff	.	.	.	.	.	.	.	.	8ff	.	.	.
4ryy	4r	4r	4r	8gg	.	.	.	.	.	.	.	.	8gg	.	.	.
.	.	.	.	8aa-	.	.	.	.	.	.	.	.	8aa-	.	.	.
4ryy	4r	4r	4r	8bb-'	.	.	.	.	.	.	.	.	8bb-	.	.	.
.	.	.	.	8bb-'	.	.	.	.	.	.	.	.	8bb-	.	.	.
=58	=58	=58	=58	=58	=58	=58	=58	=58	=58	=58	=58	=58	=58	=58	=58	=58
4BBB-	4BB-	8B-'	8f'	4bb-	2.ryy	2.ryy	2.ryy	8B-'y	8f'	4ryy	4r	8B-	4bb-	2.ryy	2.ryy	2.ryy
.	.	8B-'	8f'	.	.	.	.	8B-'y	8f'	.	.	8B-	.	.	.	.
4ryy	4r	8B-'	8f'	4r	.	.	.	8B-'y	8f'	4ryy	4r	8B-	4r	.	.	.
.	.	8B-'	8f'	.	.	.	.	8B-'y	8f'	.	.	8B-	.	.	.	.
4ryy	4r	8B-'	8f'	4dd	.	.	.	8B-'y	8f'	4BB-	4A-	8B-	4dd	.	.	.
.	.	8B-'	8f'	.	.	.	.	8B-'y	8f'	.	.	8B-	.	.	.	.
=59	=59	=59	=59	=59	=59	=59	=59	=59	=59	=59	=59	=59	=59	=59	=59	=59
4EE-	4E-	4E-	4g	4ee-	2ryy	2ryy	2ryy	4e-	4g	4E-	4G	4e-	4ee-	2ryy	2ryy	2ryy
4ryy	4r	4r	4r	4r	.	.	.	4ryy	4r	4ryy	4r	4ryy	4r	.	.	.
=60:||:	=60:||:	=60:||:	=60:||:	=60:||:	=60:||:	=60:||:	=60:||:	=60:||:	=60:||:	=60:||:	=60:||:	=60:||:	=60:||:	=60:||:	=60:||:	=60:||:
*>D	*>D	*>D	*>D	*>D	*>D	*>D	*>D	*>D	*>D	*>D	*>D	*>D	*>D	*>D	*>D	*>D
4r	4r	4r	4r	4r	4ryy	4ryy	4ryy	4r	4r	4r	4r	4r	4r	4ryy	4ryy	4ryy
=61	=61	=61	=61	=61	=61	=61	=61	=61	=61	=61	=61	=61	=61	=61	=61	=61
2.r	2.r	2.r	8b-'	8ff'	2.ryy	2.ryy	2.ryy	2.r	2.r	2.r	2.r	2.r	2.r	2.ryy	2.ryy	2.ryy
.	.	.	8b-'	8ff'	.	.	.	.	.	.	.	.	.	.	.	.
.	.	.	8b-'	8ff'	.	.	.	.	.	.	.	.	.	.	.	.
.	.	.	8b-'	8ff'	.	.	.	.	.	.	.	.	.	.	.	.
.	.	.	8b-'	8ff'	.	.	.	.	.	.	.	.	.	.	.	.
.	.	.	8b-'	8ff'	.	.	.	.	.	.	.	.	.	.	.	.
=62	=62	=62	=62	=62	=62	=62	=62	=62	=62	=62	=62	=62	=62	=62	=62	=62
2.ryy	8en'	8b-'	2.dd-	2.gg	2.ryy	2.ryy	2.ryy	2.r	2.r	2.r	2.r	8b-'	2.ryy	2.ryy	2.ryy	2.ryy
.	8e'	8b-'	.	.	.	.	.	.	.	.	.	8b-'	.	.	.	.
.	8e'	8b-'	.	.	.	.	.	.	.	.	.	8b-'	.	.	.	.
.	8e'	8b-'	.	.	.	.	.	.	.	.	.	8b-'	.	.	.	.
.	8e'	8b-'	.	.	.	.	.	.	.	.	.	8b-'	.	.	.	.
.	8e'	8b-'	.	.	.	.	.	.	.	.	.	8b-'	.	.	.	.
=63	=63	=63	=63	=63	=63	=63	=63	=63	=63	=63	=63	=63	=63	=63	=63	=63
2.ryy	2.f	2.a-	8cc'	8aa-'	2.ryy	2.ryy	2.ryy	2.r	2.r	2.r	2.r	2.a-	2.ryy	2.ryy	2.ryy	2.ryy
.	.	.	8cc'	8aa-'	.	.	.	.	.	.	.	.	.	.	.	.
.	.	.	8cc'	8aa-'	.	.	.	.	.	.	.	.	.	.	.	.
.	.	.	8cc'	8aa-'	.	.	.	.	.	.	.	.	.	.	.	.
.	.	.	8cc'	8aa-'	.	.	.	.	.	.	.	.	.	.	.	.
.	.	.	8cc'	8aa-'	.	.	.	.	.	.	.	.	.	.	.	.
=64	=64	=64	=64	=64	=64	=64	=64	=64	=64	=64	=64	=64	=64	=64	=64	=64
2.ryy	8e-X'	8g-'	2.cc-	2.aan	2.ryy	2.ryy	2.ryy	2.r	2.r	2.r	2.r	8g-'	2.ryy	2.ryy	2.ryy	2.ryy
.	8e-'	8g-'	.	.	.	.	.	.	.	.	.	8g-'	.	.	.	.
.	8e-'	8g-'	.	.	.	.	.	.	.	.	.	8g-'	.	.	.	.
.	8e-'	8g-'	.	.	.	.	.	.	.	.	.	8g-'	.	.	.	.
.	8e-'	8g-'	.	.	.	.	.	.	.	.	.	8g-'	.	.	.	.
.	8e-'	8g-'	.	.	.	.	.	.	.	.	.	8g-'	.	.	.	.
=65	=65	=65	=65	=65	=65	=65	=65	=65	=65	=65	=65	=65	=65	=65	=65	=65
2.ryy	[2.d	2f	8b-'	8bb-'	2.ryy	2.ryy	2.ryy	2.r	2.r	2.r	2.r	2f	2.ryy	2.ryy	2.ryy	2.ryy
.	.	.	8b-'	8bb-'	.	.	.	.	.	.	.	.	.	.	.	.
.	.	.	8b-'	8bb-'	.	.	.	.	.	.	.	.	.	.	.	.
.	.	.	8b-'	8bb-'	.	.	.	.	.	.	.	.	.	.	.	.
.	.	4gn	8bn'	8bbn'	.	.	.	.	.	.	.	4g	.	.	.	.
.	.	.	8b'	8bb'	.	.	.	.	.	.	.	.	.	.	.	.
=66	=66	=66	=66	=66	=66	=66	=66	=66	=66	=66	=66	=66	=66	=66	=66	=66
*	*staff:8	*staff:9	*staff:10	*staff:11	*	*	*	*	*	*	*	*staff:12	*	*	*	*
2.ryy	4d]	4a-	4cc	8ccc	2.ryy	2.ryy	2.ryy	2.ryy	2.ryy	2.ryy	2.ryy	4a-	2.ryy	2.ryy	2.ryy	2.ryy
.	.	.	.	8bb-X	.	.	.	.	.	.	.	.	.	.	.	.
.	4r	4r	4r	8aa-	.	.	.	.	.	.	.	4r	.	.	.	.
.	.	.	.	8gg	.	.	.	.	.	.	.	.	.	.	.	.
.	4r	4r	4r	8ff'	.	.	.	.	.	.	.	4r	.	.	.	.
.	.	.	.	8ff'	.	.	.	.	.	.	.	.	.	.	.	.
=67	=67	=67	=67	=67	=67	=67	=67	=67	=67	=67	=67	=67	=67	=67	=67	=67
*	*	*	*	*	*	*	*	*	*	*	*	*	*staff:12	*	*	*
2.ryy	4d	4a-	4f	8aa-	2.ryy	2.ryy	2.ryy	2.ryy	2.ryy	2.ryy	2.ryy	2.r	2.r	2.ryy	2.ryy	2.ryy
.	.	.	.	8gg	.	.	.	.	.	.	.	.	.	.	.	.
.	4r	4r	4r	8ff	.	.	.	.	.	.	.	.	.	.	.	.
.	.	.	.	8ee-	.	.	.	.	.	.	.	.	.	.	.	.
.	4r	4r	4r	8dd'	.	.	.	.	.	.	.	.	.	.	.	.
.	.	.	.	8dd'	.	.	.	.	.	.	.	.	.	.	.	.
=68	=68	=68	=68	=68	=68	=68	=68	=68	=68	=68	=68	=68	=68	=68	=68	=68
2.ryy	4d	4f	4a-	8ff	2.ryy	2.ryy	2.ryy	2.ryy	2.ryy	2.ryy	2.ryy	2.r	2.r	2.ryy	2.ryy	2.ryy
.	.	.	.	8ee-	.	.	.	.	.	.	.	.	.	.	.	.
.	4r	4r	4r	8dd	.	.	.	.	.	.	.	.	.	.	.	.
.	.	.	.	8cc	.	.	.	.	.	.	.	.	.	.	.	.
.	4r	4r	4r	8b-'	.	.	.	.	.	.	.	.	.	.	.	.
.	.	.	.	8b-'	.	.	.	.	.	.	.	.	.	.	.	.
=69	=69	=69	=69	=69	=69	=69	=69	=69	=69	=69	=69	=69	=69	=69	=69	=69
*staff:8	*	*	*	*	*	*	*	*	*	*	*	*	*	*	*	*
4EE-	8d-	[2.e-	4ee-	2gg	2.ryy	2.ryy	2.ryy	2.ryy	2.ryy	2.ryy	2.ryy	2.r	2.r	2.ryy	2.ryy	2.ryy
.	8c	.	.	.	.	.	.	.	.	.	.	.	.	.	.	.
4r	8B-	.	4e-	.	.	.	.	.	.	.	.	.	.	.	.	.
.	8A-	.	.	.	.	.	.	.	.	.	.	.	.	.	.	.
4r	8G'	.	4dd-	[4bb-	.	.	.	.	.	.	.	.	.	.	.	.
.	8G'	.	.	.	.	.	.	.	.	.	.	.	.	.	.	.
=70	=70	=70	=70	=70	=70	=70	=70	=70	=70	=70	=70	=70	=70	=70	=70	=70
4EE-	8A-	4e-]	2cc	4bb-]	2.ryy	2.ryy	2.ryy	2.ryy	2.ryy	2.ryy	2.ryy	2.r	2.r	2.ryy	2.ryy	2.ryy
.	8G	.	.	.	.	.	.	.	.	.	.	.	.	.	.	.
4r	8F	4e-	.	4aa-	.	.	.	.	.	.	.	.	.	.	.	.
.	8E-	.	.	.	.	.	.	.	.	.	.	.	.	.	.	.
4r	8Dn'	[4f	[4b-	4aa-	.	.	.	.	.	.	.	.	.	.	.	.
.	8D'	.	.	.	.	.	.	.	.	.	.	.	.	.	.	.
=71	=71	=71	=71	=71	=71	=71	=71	=71	=71	=71	=71	=71	=71	=71	=71	=71
4EE-	8E-	4f]	4b-]	2gg	2.ryy	2.ryy	2.ryy	2.ryy	2.ryy	2.ryy	2.ryy	2.r	2.r	2.ryy	2.ryy	2.ryy
.	8D	.	.	.	.	.	.	.	.	.	.	.	.	.	.	.
4r	8C	4e-	4ee-	.	.	.	.	.	.	.	.	.	.	.	.	.
.	8BB-	.	.	.	.	.	.	.	.	.	.	.	.	.	.	.
4AAA	8AAn'	4e-	4e-	4gg-	.	.	.	.	.	.	.	.	.	.	.	.
.	8AA'	.	.	.	.	.	.	.	.	.	.	.	.	.	.	.
=72	=72	=72	=72	=72	=72	=72	=72	=72	=72	=72	=72	=72	=72	=72	=72	=72
4BBB-	[2.BB-	4b-	2.d	8ff	2.ryy	2.ryy	2.ryy	2.ryy	2.ryy	2.ryy	2.ryy	2.r	2.r	2.ryy	2.ryy	2.ryy
.	.	.	.	8ee-	.	.	.	.	.	.	.	.	.	.	.	.
4r	.	4r	.	8dd	.	.	.	.	.	.	.	.	.	.	.	.
.	.	.	.	8cc	.	.	.	.	.	.	.	.	.	.	.	.
4r	.	4r	.	8b-'	.	.	.	.	.	.	.	.	.	.	.	.
.	.	.	.	8a-'	.	.	.	.	.	.	.	.	.	.	.	.
=73	=73	=73	=73	=73	=73	=73	=73	=73	=73	=73	=73	=73	=73	=73	=73	=73
2.r	2.BB-_	2.r	4e-	8g	2.ryy	2.ryy	2.ryy	2.ryy	2.ryy	2.ryy	2.ryy	2.r	2.r	2.ryy	2.ryy	2.ryy
.	.	.	.	8b-	.	.	.	.	.	.	.	.	.	.	.	.
.	.	.	4G	8a-'	.	.	.	.	.	.	.	.	.	.	.	.
.	.	.	.	8g'	.	.	.	.	.	.	.	.	.	.	.	.
.	.	.	4An	8f'	.	.	.	.	.	.	.	.	.	.	.	.
.	.	.	.	8e-'	.	.	.	.	.	.	.	.	.	.	.	.
=74	=74	=74	=74	=74	=74	=74	=74	=74	=74	=74	=74	=74	=74	=74	=74	=74
2.r	4BB-]	2.r	4B-	8d	2.ryy	2.ryy	2.ryy	2.ryy	2.ryy	2.ryy	2.ryy	2.r	2.r	2.ryy	2.ryy	2.ryy
.	.	.	.	8f	.	.	.	.	.	.	.	.	.	.	.	.
.	4r	.	4r	8e-	.	.	.	.	.	.	.	.	.	.	.	.
.	.	.	.	8g	.	.	.	.	.	.	.	.	.	.	.	.
.	4r	.	4r	8f	.	.	.	.	.	.	.	.	.	.	.	.
.	.	.	.	8a-	.	.	.	.	.	.	.	.	.	.	.	.
=75	=75	=75	=75	=75	=75	=75	=75	=75	=75	=75	=75	=75	=75	=75	=75	=75
*staff:1	*staff:1	*staff:2	*staff:3	*staff:4	*	*	*	*staff:5	*staff:5	*staff:6	*staff:6	*staff:7	*staff:7	*	*	*
2.r	2.r	2.r	2.r	8d	2.ryy	2.ryy	2.ryy	2.r	2.r	2.r	2.r	2.r	2.r	2.ryy	2.ryy	2.ryy
.	.	.	.	8f	.	.	.	.	.	.	.	.	.	.	.	.
.	.	.	.	8e-	.	.	.	.	.	.	.	.	.	.	.	.
.	.	.	.	8g	.	.	.	.	.	.	.	.	.	.	.	.
.	.	.	.	8f	.	.	.	.	.	.	.	.	.	.	.	.
.	.	.	.	8a-	.	.	.	.	.	.	.	.	.	.	.	.
=76	=76	=76	=76	=76	=76	=76	=76	=76	=76	=76	=76	=76	=76	=76	=76	=76
2.r	2.r	2.r	2.r	8g	2.ryy	2.ryy	2.ryy	2.r	2.r	2.r	2.r	2.ryy	4r	2.ryy	2.ryy	2.ryy
.	.	.	.	8b-	.	.	.	.	.	.	.	.	.	.	.	.
.	.	.	.	8a-	.	.	.	.	.	.	.	.	4r	.	.	.
.	.	.	.	8cc	.	.	.	.	.	.	.	.	.	.	.	.
.	.	.	.	8b-	.	.	.	.	.	.	.	.	8b-	.	.	.
.	.	.	.	8ee-	.	.	.	.	.	.	.	.	8ee-	.	.	.
=77	=77	=77	=77	=77	=77	=77	=77	=77	=77	=77	=77	=77	=77	=77	=77	=77
4GG	4G	4G	4B- 4e-	8b-	2.ryy	2.ryy	2.ryy	2.r	2.r	2.r	2.r	2.ryy	8b-	2.ryy	2.ryy	2.ryy
.	.	.	.	8g	.	.	.	.	.	.	.	.	8g	.	.	.
4AA-	4A-	4A-	4c 4e-	8cc	.	.	.	.	.	.	.	.	8cc	.	.	.
.	.	.	.	8a-	.	.	.	.	.	.	.	.	8a-	.	.	.
4BB-	4B-	4B-	4A- 4d	8f	.	.	.	.	.	.	.	.	8f	.	.	.
.	.	.	.	8d	.	.	.	.	.	.	.	.	8d	.	.	.
=78	=78	=78	=78	=78	=78	=78	=78	=78	=78	=78	=78	=78	=78	=78	=78	=78
4EE-	4E-	4E-	4G 4e-	8e-	2.ryy	2.ryy	2.ryy	2.r	2.r	2.r	2.r	2.ryy	8e-	2.ryy	2.ryy	2.ryy
.	.	.	.	8g	.	.	.	.	.	.	.	.	8g	.	.	.
4ryy	4r	4r	4r	8b-	.	.	.	.	.	.	.	.	8b-	.	.	.
.	.	.	.	8ee-	.	.	.	.	.	.	.	.	8ee-	.	.	.
4ryy	4r	4r	4r	8gg	.	.	.	.	.	.	.	.	8gg	.	.	.
.	.	.	.	8ee-	.	.	.	.	.	.	.	.	8ee-	.	.	.
=79	=79	=79	=79	=79	=79	=79	=79	=79	=79	=79	=79	=79	=79	=79	=79	=79
2.r	2.r	2.r	8B-	4dd	2.ryy	2.ryy	2.ryy	2.r	2.r	2.r	2.r	8B-	4dd	2.ryy	2.ryy	2.ryy
.	.	.	8d	.	.	.	.	.	.	.	.	8d	.	.	.	.
.	.	.	8f	4r	.	.	.	.	.	.	.	8f	4r	.	.	.
.	.	.	8a-	.	.	.	.	.	.	.	.	8a-	.	.	.	.
.	.	.	8cc	8aa-	.	.	.	.	.	.	.	8cc	8aa-	.	.	.
.	.	.	8a-	8ff	.	.	.	.	.	.	.	8a-	8ff	.	.	.
=80	=80	=80	=80	=80	=80	=80	=80	=80	=80	=80	=80	=80	=80	=80	=80	=80
2.r	2.r	8G	4g	4ee-	2.ryy	2.ryy	2.ryy	2.r	2.r	2.ryy	8G	4g	4ee-	2.ryy	2.ryy	2.ryy
.	.	8B-	.	.	.	.	.	.	.	.	8B-	.	.	.	.	.
.	.	8d	4r	4r	.	.	.	.	.	.	8d	4r	4r	.	.	.
.	.	8e-	.	.	.	.	.	.	.	.	8e-	.	.	.	.	.
.	.	8g	8e-	8bb-	.	.	.	.	.	.	8g	4r	8bb-	.	.	.
.	.	8e-	8ee-	8gg	.	.	.	.	.	.	8e-	.	8gg	.	.	.
=81	=81	=81	=81	=81	=81	=81	=81	=81	=81	=81	=81	=81	=81	=81	=81	=81
2.r	8AA-	4a-	4ee-	2ccc	2.ryy	2.ryy	2.ryy	2.r	2.r	2.ryy	4c	2.r	2ccc	2.ryy	2.ryy	2.ryy
.	8C	.	.	.	.	.	.	.	.	.	.	.	.	.	.	.
.	8F	4r	4r	.	.	.	.	.	.	.	4r	.	.	.	.	.
.	8A-	.	.	.	.	.	.	.	.	.	.	.	.	.	.	.
.	8c'	4r	8e-	8aa-	.	.	.	.	.	.	4r	.	8aa-	.	.	.
.	8A-'	.	8f	8ff	.	.	.	.	.	.	.	.	8ff	.	.	.
=82	=82	=82	=82	=82	=82	=82	=82	=82	=82	=82	=82	=82	=82	=82	=82	=82
4BBB-	4B-	4g	4g	8ee-	2.ryy	2.ryy	2.ryy	2.r	2.r	2.r	2.r	2.r	8ee-	2.ryy	2.ryy	2.ryy
.	.	.	.	8ff	.	.	.	.	.	.	.	.	8ff	.	.	.
4ryy	4r	4r	4r	8gg	.	.	.	.	.	.	.	.	8gg	.	.	.
.	.	.	.	8aa-	.	.	.	.	.	.	.	.	8aa-	.	.	.
4ryy	4r	4r	4r	8bb-'	.	.	.	.	.	.	.	.	8bb-	.	.	.
.	.	.	.	8bb-'	.	.	.	.	.	.	.	.	8bb-	.	.	.
=83	=83	=83	=83	=83	=83	=83	=83	=83	=83	=83	=83	=83	=83	=83	=83	=83
4BBB-	4BB-	8B-'	8f'	4bb-	2.ryy	2.ryy	2.ryy	8B-'y	8f'	4ryy	4r	8B-	4bb-	2.ryy	2.ryy	2.ryy
.	.	8B-'	8f'	.	.	.	.	8B-'y	8f'	.	.	8B-	.	.	.	.
4ryy	4r	8B-'	8f'	4r	.	.	.	8B-'y	8f'	4ryy	4r	8B-	4r	.	.	.
.	.	8B-'	8f'	.	.	.	.	8B-'y	8f'	.	.	8B-	.	.	.	.
4BBB-	4BB-	8B-'	8f'	4dd	.	.	.	8B-'y	8f'	4F	4A-	8B-	4dd	.	.	.
.	.	8B-'	8f'	.	.	.	.	8B-'y	8f'	.	.	8B-	.	.	.	.
=84	=84	=84	=84	=84	=84	=84	=84	=84	=84	=84	=84	=84	=84	=84	=84	=84
4EE-	4E-	4e-	4g	4ee-	2ryy	2ryy	2ryy	4e-	4g	4E-	4G	4e-	4ee-	2ryy	2ryy	2ryy
4ryy	4r	4r	4r	4r	.	.	.	4ryy	4r	4ryy	4r	4ryy	4r	.	.	.
==85:|	==85:|	==85:|	==85:|	==85:|	==85:|	==85:|	==85:|	==85:|	==85:|	==85:|	==85:|	==85:|	==85:|	==85:|	==85:|	==85:|
*-	*-	*-	*-	*-	*-	*-	*-	*-	*-	*-	*-	*-	*-	*-	*-	*-
